**kern	**dynam
*clefF4	*
*k[b-e-]	*
*B-:	*
*M3/4	*
=1	=1
(<4BB-'	f
4BB-'	.
4BB-')	.
=2	=2
(<4BB-'	.
4BB-'	.
4BB-')	.
=3	=3
(<4BB-'	.
4BB-'	.
4BB-')	.
=4	=4
(<4BB-'	.
4BB-'	.
4BB-')	.
=5	=5
(<4BB-'	.
4BB-'	.
4BB-')	.
=6	=6
4BB-	.
4r	.
4r	.
=7	=7
4F	.
4F	.
4F	.
=8	=8
4BB-	.
4r	.
4r	.
=9	=9
4FF	.
4FF	.
4FF	.
=10	=10
4BB-	.
4r	.
4r	.
=11:|!|:	=11:|!|:
!!linebreak:original
4F'	.
4F'	.
4F'	.
=12	=12
4G	.
4r	.
4r	.
=13	=13
4En'	.
4E'	.
4E'	.
=14	=14
4F	.
4r	.
4r	.
=15	=15
2.r	.
=16	=16
2.r	.
=17	=17
2.r	.
=18	=18
4r	.
(>4F	.
4E-)	.
=19	=19
4D	.
4r	.
4r	.
=20	=20
4e-	.
4e-	.
4e-	.
=21	=21
(>8cL	.
8B-)	.
(>8A	.
8G)	.
(>8F	.
8E-J)	.
=22	=22
4D	.
4r	.
4r	.
=23	=23
4r	.
4F	.
4F	.
=24	=24
[4F	.
8FL]	.
8E-	.
8D	.
8CJ	.
=25	=25
!!linebreak:original
(<4BB-'	.
4BB-'	.
4BB-')	.
=26	=26
(<4BB-'	.
4BB-'	.
4BB-')	.
=27	=27
(<4BB-'	.
4BB-'	.
4BB-')	.
=28	=28
4BB-'	.
4BB-'	.
4BB-'	.
=29	=29
(<4BB-'	.
4BB-'	.
4BB-')	.
=30	=30
4BB-	.
4r	.
4r	.
=31	=31
4F	.
4F	.
4F	.
=32	=32
4BB-	.
4r	.
4r	.
=33	=33
4FF	.
4FF	.
4FF	.
=34	=34
4BB-	.
4r	.
4r	.
=35:|!|:	=35:|!|:
*k[b-e-a-]	*
*E-:	*
(>2E-	p
4D)	.
=36	=36
4E-	.
4r	.
4r	.
=37	=37
2.r	.
=38	=38
!!linebreak:original
(>2D	.
4E-)	.
=39	=39
4F	.
4r	.
4r	.
=40	=40
2.r	.
=41	=41
(>2E-	.
4F)	.
=42	=42
4G	.
4r	.
4r	.
=43	=43
4r	.
4r	.
(>4A-	.
=44	=44
4G')	.
4E-'	.
4r	.
=45	=45
4r	.
4r	.
(>4F	.
=46	=46
4E-')	.
4G'	.
4r	.
=47	=47
4r	.
(>4D	.
4E-)	.
=48	=48
4B-'	.
4BB-'	.
4r	.
=49:|!|:	=49:|!|:
(>2G	.
4F)	.
=50	=50
4En	.
4r	.
4r	.
=51	=51
!!linebreak:original
4r	.
4r	.
4BB-'	.
=52	=52
(<4AA-	.
4FF)	.
4r	.
=53	=53
4r	.
4r	.
4AA-'	.
=54	=54
(<4GG	.
4EE-)	.
4r	.
=55	=55
4r	.
4r	.
(<4BB-	.
=56	=56
4C)	.
4AAn'	.
4r	.
=57	=57
4r	.
4r	.
(>4F	.
=58	=58
4G')	.
4E-'	.
4r	.
=59	=59
2.r	.
=60	=60
4r	.
4r	.
(<4GG	.
=61	=61
4AA-)	.
4FF	.
4BB-	.
=62	=62
!LO:TX:i:t=M.D.C.	!
4E-	.
4EE-	.
4r	.
=:|!	=:|!
*-	*-
!!!RDF**kern: > = above
!!!RDF**kern: < = below
